images/class_icons/amber_aegis.svg

<svg height="400" viewBox="0 0 400 400" width="400" xmlns="http://www.w3.org/2000/svg"><path d="m193.807 3.147c-3.667.916-8.409 4.431-10.053 7.451-3.112 5.717-3.164 16.715-.214 45.088 2.839 27.312 4.386 44.342 6.412 70.589 2.187 28.343 4.502 62.496 5.029 74.196.104 2.329.461 9.105.791 15.058.81 14.57 1.481 29.549 2.011 44.863.461 13.335.615 14.547 1.825 14.375 2.287-.325 2.994-4.766 3.365-21.12.164-7.247.514-17.694.779-23.216.264-5.521.695-14.698.957-20.392 1.822-39.547 6.319-99.318 11.449-152.157 2.98-30.694 3.468-40.728 2.167-44.549-.974-2.86-7.15-7.759-11.923-9.459-2.552-.908-10.12-1.345-12.595-.727m-34.591 15.262c-.345.078-2.672.569-5.17 1.092-13.335 2.793-29.343 10.122-40.679 18.625-1.232.925-2.323 1.598-2.424 1.497s-.272.049-.381.332c-.109.284-.327.516-.485.516-1.232 0-11.082 8.834-19.083 17.114-17.469 18.081-37.552 49.845-48.09 76.062-10.039 24.975-17.162 47.151-22.169 69.02-6.655 29.068-13.364 67.228-13.749 78.196l-.173 4.941h1.596c1.147 0 2.255-.3 3.942-1.069 1.291-.589 2.428-.989 2.527-.889.1.099.181.039.181-.134 0-.172.188-.313.419-.313 4.21 0 49.674-32.347 67.34-47.912 19.877-17.513 35.844-32.401 41.731-38.91 1.294-1.431 4.262-4.705 6.594-7.276 8.431-9.29 14.402-16.929 21.322-27.277 7.645-11.432 10.163-16.078 20.396-37.632 2.458-5.176 5.019-10.508 5.692-11.847l1.223-2.435-5.04-29.565c-2.772-16.261-5.724-33.376-6.561-38.035s-1.69-9.6-1.895-10.981c-.59-3.961-2.076-10.866-2.617-12.156-.507-1.208-1.955-1.522-4.447-.964m78.068.297c-.84.729-2.73 8.472-3.666 15.019-.074.518-1.068 6.095-2.209 12.393-2 11.04-10.093 60.321-10.432 63.529-.161 1.513-.023 1.856 3.897 9.726 2.235 4.486 5.796 11.756 7.913 16.156 18.44 38.327 45.116 68.435 97.589 110.148 27.744 22.055 40.342 30.523 58.408 39.261l4.314 2.087-.001-2.101c-.007-12.679-6.03-50.967-12.199-77.551-7.597-32.732-12.335-48.122-21.105-68.549-1.037-2.416-2.396-5.593-3.02-7.059-4.692-11.035-18.213-36.108-24.949-46.265-10.469-15.787-29.296-36.185-41.125-44.559-.487-.345-1.072-.804-1.3-1.019-.227-.216-.489-.393-.582-.393s-1.833-1.185-3.866-2.634c-15.42-10.99-43.582-21.736-47.667-18.189m-58.259 126.83c-4.343 8.357-8.202 14.733-12.75 21.069-1.985 2.764-4.324 6.05-5.199 7.303-3.073 4.399-10.553 13.566-17.194 21.072-11.257 12.724-36.741 36.767-46.399 43.776-.823.598-4 2.977-7.059 5.288-5.139 3.881-13.086 9.323-20.542 14.065l-3.058 1.946v13.623c0 24.316 1.58 49.583 4.711 75.342 1.313 10.795 2.201 14.161 3.705 14.04 5.304-.427 36.779-29.137 49.958-45.57 17.687-22.054 29.99-42.05 44.394-72.157 20.198-42.214 20.864-46.44 14.866-94.274-1.399-11.157-1.538-12.079-1.826-12.078-.11.001-1.734 2.951-3.607 6.555m37.936-3.967c-.082.388-.868 7.341-1.748 15.451-.879 8.109-2.275 20.517-3.101 27.573l-1.503 12.828 4.964 12.532c6.935 17.511 11.954 29.266 17.07 39.987 1.251 2.62 2.194 4.844 2.097 4.941-.098.098-.005.178.207.178.211 0 .297.141.19.314-.106.172-.068.313.086.313s.28.19.28.422c0 1.805 13.453 24.628 21.387 36.284 12.783 18.779 20.66 28.7 33.032 41.607 18.898 19.713 33.882 31.093 36.389 27.635 2.107-2.906 5.186-31.629 6.867-64.065 1.622-31.275 1.814-36.075 1.452-36.29-1.349-.802-21.762-15.587-24.669-17.867-1.985-1.556-4.154-3.185-4.822-3.619-2.774-1.804-16.176-12.875-24.198-19.989-4.957-4.397-20.456-19.948-24.896-24.98-7.816-8.86-16.083-18.995-16.607-20.362-.102-.263-1.89-2.884-3.974-5.824-4.848-6.835-6.65-9.672-11.768-18.52-5.225-9.034-6.335-10.444-6.735-8.549m-10.083 92.272c-.25.64-.107 14.959.819 82.394.336 24.416.612 51.31.615 59.765s.097 16.766.21 18.469l.205 3.097 1.44-.177c11.271-1.385 25.825-11.144 40.862-27.399 10.789-11.664 28.87-37.127 26.362-37.127-.14 0-1.432-1.306-2.871-2.902-1.438-1.596-4.176-4.526-6.083-6.51-17.667-18.376-28.848-34.084-48.906-68.706-2.849-4.918-6.586-11.341-8.305-14.274-1.718-2.934-3.348-5.757-3.621-6.275-.442-.835-.524-.875-.727-.355m-16.662 4.362c-.884 1.42-3.899 6.817-6.7 11.993-7.038 13.01-13.966 24.489-20.363 33.737-1.496 2.162-2.801 4.139-2.899 4.392-.646 1.664-12.784 17.708-18.7 24.717-4.903 5.808-15.354 17.151-18.49 20.066-.985.917-1.357.209 5.172 9.853 15.641 23.106 28.62 37.256 42.117 45.915 17.379 11.152 19.604 10.848 21.023-2.869.901-8.705 1.623-149.211.772-150.063-.221-.221-.829.49-1.932 2.259" fill-rule="evenodd"/></svg>

<svg id="svg" xmlns="http://www.w3.org/2000/svg" xmlns:xlink="http://www.w3.org/1999/xlink" width="400" height="400" viewBox="0, 0, 400,400" version="1.1"><g id="svgg"><path id="path0" d="M193.807 3.147 C 190.140 4.063,185.398 7.578,183.754 10.598 C 180.642 16.315,180.590 27.313,183.540 55.686 C 186.379 82.998,187.926 100.028,189.952 126.275 C 192.139 154.618,194.454 188.771,194.981 200.471 C 195.085 202.800,195.442 209.576,195.772 215.529 C 196.582 230.099,197.253 245.078,197.783 260.392 C 198.244 273.727,198.398 274.939,199.608 274.767 C 201.895 274.442,202.602 270.001,202.973 253.647 C 203.137 246.400,203.487 235.953,203.752 230.431 C 204.016 224.910,204.447 215.733,204.709 210.039 C 206.531 170.492,211.028 110.721,216.158 57.882 C 219.138 27.188,219.626 17.154,218.325 13.333 C 217.351 10.473,211.175 5.574,206.402 3.874 C 203.850 2.966,196.282 2.529,193.807 3.147 M159.216 18.409 C 158.871 18.487,156.544 18.978,154.046 19.501 C 140.711 22.294,124.703 29.623,113.367 38.126 C 112.135 39.051,111.044 39.724,110.943 39.623 C 110.842 39.522,110.671 39.672,110.562 39.955 C 110.453 40.239,110.235 40.471,110.077 40.471 C 108.845 40.471,98.995 49.305,90.994 57.585 C 73.525 75.666,53.442 107.430,42.904 133.647 C 32.865 158.622,25.742 180.798,20.735 202.667 C 14.080 231.735,7.371 269.895,6.986 280.863 L 6.813 285.804 8.409 285.804 C 9.556 285.804,10.664 285.504,12.351 284.735 C 13.642 284.146,14.779 283.746,14.878 283.846 C 14.978 283.945,15.059 283.885,15.059 283.712 C 15.059 283.540,15.247 283.399,15.478 283.399 C 19.688 283.399,65.152 251.052,82.818 235.487 C 102.695 217.974,118.662 203.086,124.549 196.577 C 125.843 195.146,128.811 191.872,131.143 189.301 C 139.574 180.011,145.545 172.372,152.465 162.024 C 160.110 150.592,162.628 145.946,172.861 124.392 C 175.319 119.216,177.880 113.884,178.553 112.545 L 179.776 110.110 174.736 80.545 C 171.964 64.284,169.012 47.169,168.175 42.510 C 167.338 37.851,166.485 32.910,166.280 31.529 C 165.690 27.568,164.204 20.663,163.663 19.373 C 163.156 18.165,161.708 17.851,159.216 18.409 M237.284 18.706 C 236.444 19.435,234.554 27.178,233.618 33.725 C 233.544 34.243,232.550 39.820,231.409 46.118 C 229.409 57.158,221.316 106.439,220.977 109.647 C 220.816 111.160,220.954 111.503,224.874 119.373 C 227.109 123.859,230.670 131.129,232.787 135.529 C 251.227 173.856,277.903 203.964,330.376 245.677 C 358.120 267.732,370.718 276.200,388.784 284.938 L 393.098 287.025 393.097 284.924 C 393.090 272.245,387.067 233.957,380.898 207.373 C 373.301 174.641,368.563 159.251,359.793 138.824 C 358.756 136.408,357.397 133.231,356.773 131.765 C 352.081 120.730,338.560 95.657,331.824 85.500 C 321.355 69.713,302.528 49.315,290.699 40.941 C 290.212 40.596,289.627 40.137,289.399 39.922 C 289.172 39.706,288.910 39.529,288.817 39.529 C 288.724 39.529,286.984 38.344,284.951 36.895 C 269.531 25.905,241.369 15.159,237.284 18.706 M179.025 145.536 C 174.682 153.893,170.823 160.269,166.275 166.605 C 164.290 169.369,161.951 172.655,161.076 173.908 C 158.003 178.307,150.523 187.474,143.882 194.980 C 132.625 207.704,107.141 231.747,97.483 238.756 C 96.660 239.354,93.483 241.733,90.424 244.044 C 85.285 247.925,77.338 253.367,69.882 258.109 L 66.824 260.055 66.824 273.678 C 66.824 297.994,68.404 323.261,71.535 349.020 C 72.848 359.815,73.736 363.181,75.240 363.060 C 80.544 362.633,112.019 333.923,125.198 317.490 C 142.885 295.436,155.188 275.440,169.592 245.333 C 189.790 203.119,190.456 198.893,184.458 151.059 C 183.059 139.902,182.920 138.980,182.632 138.981 C 182.522 138.982,180.898 141.932,179.025 145.536 M216.961 141.569 C 216.879 141.957,216.093 148.910,215.213 157.020 C 214.334 165.129,212.938 177.537,212.112 184.593 L 210.609 197.421 215.573 209.953 C 222.508 227.464,227.527 239.219,232.643 249.940 C 233.894 252.560,234.837 254.784,234.740 254.881 C 234.642 254.979,234.735 255.059,234.947 255.059 C 235.158 255.059,235.244 255.200,235.137 255.373 C 235.031 255.545,235.069 255.686,235.223 255.686 C 235.377 255.686,235.503 255.876,235.503 256.108 C 235.503 257.913,248.956 280.736,256.890 292.392 C 269.673 311.171,277.550 321.092,289.922 333.999 C 308.820 353.712,323.804 365.092,326.311 361.634 C 328.418 358.728,331.497 330.005,333.178 297.569 C 334.800 266.294,334.992 261.494,334.630 261.279 C 333.281 260.477,312.868 245.692,309.961 243.412 C 307.976 241.856,305.807 240.227,305.139 239.793 C 302.365 237.989,288.963 226.918,280.941 219.804 C 275.984 215.407,260.485 199.856,256.045 194.824 C 248.229 185.964,239.962 175.829,239.438 174.462 C 239.336 174.199,237.548 171.578,235.464 168.638 C 230.616 161.803,228.814 158.966,223.696 150.118 C 218.471 141.084,217.361 139.674,216.961 141.569 M206.878 233.841 C 206.628 234.481,206.771 248.800,207.697 316.235 C 208.033 340.651,208.309 367.545,208.312 376.000 C 208.315 384.455,208.409 392.766,208.522 394.469 L 208.727 397.566 210.167 397.389 C 221.438 396.004,235.992 386.245,251.029 369.990 C 261.818 358.326,279.899 332.863,277.391 332.863 C 277.251 332.863,275.959 331.557,274.520 329.961 C 273.082 328.365,270.344 325.435,268.437 323.451 C 250.770 305.075,239.589 289.367,219.531 254.745 C 216.682 249.827,212.945 243.404,211.226 240.471 C 209.508 237.537,207.878 234.714,207.605 234.196 C 207.163 233.361,207.081 233.321,206.878 233.841 M190.216 238.203 C 189.332 239.623,186.317 245.020,183.516 250.196 C 176.478 263.206,169.550 274.685,163.153 283.933 C 161.657 286.095,160.352 288.072,160.254 288.325 C 159.608 289.989,147.470 306.033,141.554 313.042 C 136.651 318.850,126.200 330.193,123.064 333.108 C 122.079 334.025,121.707 333.317,128.236 342.961 C 143.877 366.067,156.856 380.217,170.353 388.876 C 187.732 400.028,189.957 399.724,191.376 386.007 C 192.277 377.302,192.999 236.796,192.148 235.944 C 191.927 235.723,191.319 236.434,190.216 238.203 " stroke="none" fill="#000000" fill-rule="evenodd"></path></g></svg>
